X: 10361
T: WM. YOUNG'S BEST MALT -- Strathspey
C: By Alex. Deas
R: strathspey
B: K\"ohler's Violin Repository, v.1, 1885 p.36 #1
F: http://www.archive.org/details/klersviolinrepos01edin
Z: 2011 John Chambers <jc:trillian.mit.edu>
M: C|
L: 1/8
K: A
P: 1 Strathspey.
uE |\
A<A (.c>.A) (.F>.A) (.E>.D) | (.C>.E) B,>c d/c/B/A/ F<B | A<Ac>e {c}(.B>.A)(.F>.A) | E>e d/c/B/A/ a>cB>c |
A<A (.c>.A) (F<A) (.E>.D) | (C>E)A,>c d2(df) | (3efg (3agf (3acB (3ABc | A<FE>F A2(A || uc) |
c(e-"_>"e.g) a/g/f/e/ bc | d>fe<c {c}B2(Bd) | c(e-"_>"e.g) a/g/f/e/ fd | c<eB>c A2(Ad) |
c(e-"_>"e.g) a/g/f/e/ bc | d>fe<c B2(Bd) | (3cba (3gfe (3dcB (3ABc | A<FE>F "_Segue Reel."A2A |]
P: 2 Reel.
R: reel
vA2(cA) eccf | ecac B2(Bc) | AAcA acBc | AFEF A(aga) |
A2(cA) eccf | ecac B2(Bc) | Aaga bcBc | AFEF A2(A || ud) |
ceef ecce | {g}a2{g}a2 bgae | ceef eccb | cABG A2(Ad) |
ceef ecce | {g}a2{g}a2 bgae | ceea gbdb | cABG A(aga) ||["To finish"cABG A2"_Fine"Az |]

%%sep 2 1 500

